svg/map/planet_fill.svg

<?xml version="1.0" encoding="UTF-8"?>
<svg width="24px" height="24px" viewBox="0 0 24 24" version="1.1" xmlns="http://www.w3.org/2000/svg" xmlns:xlink="http://www.w3.org/1999/xlink">
    <title>planet_fill</title>
    <g id="页面-1" stroke="none" stroke-width="1" fill="none" fill-rule="evenodd">
        <g id="Map" transform="translate(-240.000000, -48.000000)">
            <g id="planet_fill" transform="translate(240.000000, 48.000000)">
                 <path d="M24,0 L24,24 L0,24 L0,0 L24,0 Z M12.5934901,23.257841 L12.5819402,23.2595131 L12.5108777,23.2950439 L12.4918791,23.2987469 L12.4918791,23.2987469 L12.4767152,23.2950439 L12.4056548,23.2595131 C12.3958229,23.2563662 12.3870493,23.2590235 12.3821421,23.2649074 L12.3780323,23.275831 L12.360941,23.7031097 L12.3658947,23.7234994 L12.3769048,23.7357139 L12.4804777,23.8096931 L12.4953491,23.8136134 L12.4953491,23.8136134 L12.5071152,23.8096931 L12.6106902,23.7357139 L12.6232938,23.7196733 L12.6232938,23.7196733 L12.6266527,23.7031097 L12.609561,23.275831 C12.6075724,23.2657013 12.6010112,23.2592993 12.5934901,23.257841 L12.5934901,23.257841 Z M12.8583906,23.1452862 L12.8445485,23.1473072 L12.6598443,23.2396597 L12.6498822,23.2499052 L12.6498822,23.2499052 L12.6471943,23.2611114 L12.6650943,23.6906389 L12.6699349,23.7034178 L12.6699349,23.7034178 L12.678386,23.7104931 L12.8793402,23.8032389 C12.8914285,23.8068999 12.9022333,23.8029875 12.9078286,23.7952264 L12.9118235,23.7811639 L12.8776777,23.1665331 C12.8752882,23.1545897 12.8674102,23.1470016 12.8583906,23.1452862 L12.8583906,23.1452862 Z M12.1430473,23.1473072 C12.1332178,23.1423925 12.1221763,23.1452606 12.1156365,23.1525954 L12.1099173,23.1665331 L12.0757714,23.7811639 C12.0751323,23.7926639 12.0828099,23.8018602 12.0926481,23.8045676 L12.108256,23.8032389 L12.3092106,23.7104931 L12.3186497,23.7024347 L12.3186497,23.7024347 L12.3225043,23.6906389 L12.340401,23.2611114 L12.337245,23.2485176 L12.337245,23.2485176 L12.3277531,23.2396597 L12.1430473,23.1473072 Z" id="MingCute" fill-rule="nonzero"></path>
                <path d="M20.989,12.4463 C20.7564,17.2095 16.8208,21 11.9999,21 C10.5192,21 9.12198,20.6422 7.8899,20.0086 C8.7531,19.721 9.69133,19.3449 10.7019,18.88 C11.9437,18.3088 13.2947,17.6035 14.7498,16.7634 C16.2053,15.923 17.492,15.1055 18.6078,14.3155 C19.5147,13.6734 20.3088,13.0494 20.989,12.4463 Z M11.9999,3 C14.2254,3 16.2622,3.80776 17.8332,5.14608 L18.1502,5.07445942 C18.204873,5.06273798 18.2603992,5.05118132 18.3166791,5.0398751 L18.6626031,4.97572864 L18.6626031,4.97572864 L19.021825,4.92170531 C20.2967875,4.75513687 21.728125,4.850145 22.3921,6.00015 C23.1541,7.31994429 22.3337898,8.7836798 21.4354866,9.86238324 L21.2101565,10.1237315 L21.2101565,10.1237315 L20.9868,10.3672 L20.9868,10.3672 C19.5926,11.8453 17.2842,13.568 13.9998,15.4643 C10.7155,17.3605 8.06939,18.4983 6.09215,18.9666 L5.93321349,19.0031222 L5.93321349,19.0031222 L5.60193321,19.0716478 L5.60193321,19.0716478 L5.25627895,19.1311438 C3.9090912,19.337298 2.33771536,19.2649536 1.60749,18.0002 C0.94369125,16.85045 1.57666313,15.563675 2.35805977,14.5429766 L2.58436273,14.2589368 C2.62242236,14.2129196 2.66057056,14.1675929 2.69868332,14.123 L2.92594278,13.8645982 L2.92594278,13.8645982 L3.1464,13.6259 L3.1464,13.6259 C3.05014,13.0984 2.99983,12.5545 2.99983,12 C2.99983,7.02944 7.02935,3 11.9999,3 Z M3.87139,15.8685 L3.71722759,16.0818901 C3.55155664,16.3168457 3.37024174,16.6072235 3.34321771,16.8695568 L3.34335,16.998 C3.483525,17.247675 3.97979063,17.2504125 4.34516813,17.2230984 L4.64888,17.1938 L4.64888,17.1938 C4.35374,16.7768 4.09319,16.3337 3.87139,15.8685 Z M20.6563,7.00239 C20.4535667,6.85171 20.1231,6.83836333 19.8222926,6.85677667 L19.537201,6.88186654 C19.4932765,6.88650926 19.4516333,6.89105667 19.413,6.89502 C19.703,7.31529 19.9581,7.76144 20.1743,8.22928 L20.3354905,8.00413896 C20.5236012,7.7311708 20.7549917,7.34197078 20.6923379,7.08178418 L20.6601,7.00017 L20.6563,7.00239 Z" id="形状" fill="#09244B"></path>
            </g>
        </g>
    </g>
</svg>

<svg xmlns="http://www.w3.org/2000/svg" width="24" height="24"><g fill="none" fill-rule="evenodd"><path d="M24 0v24H0V0h24ZM12.593 23.258l-.011.002-.071.035-.02.004-.014-.004-.071-.035c-.01-.004-.019-.001-.024.005l-.004.01-.017.428.005.02.01.013.104.074.015.004.012-.004.104-.074.012-.016.004-.017-.017-.427c-.002-.01-.009-.017-.017-.018Zm.265-.113-.013.002-.185.093-.01.01-.003.011.018.43.005.012.008.007.201.093c.012.004.023 0 .029-.008l.004-.014-.034-.614c-.003-.012-.01-.02-.02-.022Zm-.715.002a.023.023 0 0 0-.027.006l-.006.014-.034.614c0 .012.007.02.017.024l.015-.002.201-.093.01-.008.004-.011.017-.43-.003-.012-.01-.01-.184-.092Z"/><path fill="#09244B" d="M20.989 12.446a9 9 0 0 1-13.1 7.563 27.86 27.86 0 0 0 2.813-1.129 49.768 49.768 0 0 0 4.048-2.117 49.8 49.8 0 0 0 3.858-2.448 27.897 27.897 0 0 0 2.381-1.869ZM11.999 3c2.226 0 4.263.808 5.834 2.146l.317-.072.167-.034.346-.064.359-.054c1.275-.167 2.706-.072 3.37 1.078.762 1.32-.058 2.784-.957 3.862l-.225.262-.223.243c-1.394 1.478-3.703 3.201-6.987 5.097-3.284 1.896-5.93 3.034-7.908 3.503l-.159.036-.331.069-.346.06c-1.347.205-2.918.133-3.649-1.132-.663-1.15-.03-2.436.751-3.457l.226-.284.115-.136.227-.258.22-.24A9 9 0 0 1 12 3ZM3.872 15.869l-.154.213c-.165.235-.347.525-.374.788v.128c.14.25.637.252 1.002.225l.304-.03a8.995 8.995 0 0 1-.778-1.325Zm16.785-8.867c-.202-.15-.533-.164-.834-.145l-.285.025c-.044.005-.085.01-.124.013.29.42.545.866.761 1.334l.161-.225c.189-.273.42-.662.357-.922L20.66 7l-.004.002Z"/></g></svg>
